dist/svgs/core-ui-icons/free/cil-columns.svg

<svg xmlns="http://www.w3.org/2000/svg" viewBox="0 0 512 512"><path d="M472 48H40a24.028 24.028 0 00-24 24v376a24.028 24.028 0 0024 24h432a24.028 24.028 0 0024-24V72a24.028 24.028 0 00-24-24zm-8 32v64H48V80zM48 176h192v264H48zm224 264V176h192v264z"/></svg>

<svg xmlns="http://www.w3.org/2000/svg" viewBox="0 0 512 512">
  <path fill="var(--ci-primary-color, currentColor)" d="M472,48H40A24.028,24.028,0,0,0,16,72V448a24.028,24.028,0,0,0,24,24H472a24.028,24.028,0,0,0,24-24V72A24.028,24.028,0,0,0,472,48Zm-8,32v64H48V80ZM48,176H240V440H48ZM272,440V176H464V440Z" class="ci-primary"/>
</svg>
